X: 1
T: Come Again You're Welcome
M: 4/4
L: 1/8
R: reel
K: Gmaj
BA | GEDB, [D3G,3] d | BGcB AG E2 | G2 GE D3 d | BGAB G2 :|
GB | degd ed B2 | g2 dg e3 e | degd edBA | GEDE G2 :|
